src/assets/images/001-target.svg

<svg width="48" height="48" viewBox="0 0 48 48" fill="none" xmlns="http://www.w3.org/2000/svg">
<g clip-path="url(#clip0_1_8650)">
<path d="M41.0014 17.5212L40.0599 18.4633C39.9331 18.589 39.8073 18.6988 39.682 18.8C40.7659 21.2276 41.3746 23.9131 41.3746 26.7392C41.3746 37.5126 32.6093 46.2772 21.8354 46.2772C11.0609 46.2772 2.29575 37.5126 2.29575 26.7392C2.29575 15.9669 11.061 7.20297 21.8354 7.20297C24.0796 7.20297 26.234 7.58828 28.2433 8.28728V8.28662C28.4347 7.9825 28.6582 7.67959 28.9641 7.37143L29.4477 6.88721C27.0834 5.98009 24.5186 5.47815 21.836 5.47815C10.0938 5.4789 0.571777 14.998 0.571777 26.7385C0.571777 38.4808 10.0938 48 21.8355 48C33.579 48 43.0987 38.4807 43.0987 26.7385C43.0986 23.4368 42.3459 20.3095 41.0014 17.5212Z" fill="#888888"/>
<path d="M34.8679 20.1176H32.9352C33.9184 21.9154 34.478 23.9755 34.478 26.1642C34.478 33.1351 28.8064 38.8061 21.8355 38.8061C14.864 38.8061 9.1924 33.135 9.1924 26.1642C9.19231 19.1943 14.8639 13.5233 21.8355 13.5233C23.795 13.5233 25.6528 13.9714 27.3098 14.7712V12.8826C25.6223 12.1864 23.7738 11.7994 21.8355 11.7994C13.9003 11.7994 7.46777 18.2314 7.46777 26.1643C7.46777 34.0973 13.9002 40.5303 21.8355 40.5303C29.769 40.5303 36.2026 34.0973 36.2026 26.1643C36.2027 24.0035 35.7219 21.956 34.8679 20.1176Z" fill="#888888"/>
<path d="M47.2943 7.10571C47.16 6.84499 46.9428 6.66274 46.7279 6.55286C46.5112 6.44196 46.29 6.38992 46.0637 6.36658L41.9599 5.95727C41.8764 5.95099 41.745 5.89324 41.6421 5.78814C41.5369 5.6852 41.4792 5.55377 41.4735 5.47033L41.0625 1.36501C41.0304 1.06491 40.951 0.766507 40.7418 0.488725C40.6378 0.351475 40.4955 0.223506 40.3233 0.134349C40.1518 0.0451927 39.9541 -0.000557376 39.7678 5.12465e-06C39.5283 0.000661376 39.3156 0.067974 39.1368 0.160037C38.9578 0.253787 38.8058 0.373787 38.6686 0.510381L30.3858 8.79312C30.0492 9.13437 29.8096 9.5448 29.6255 9.98374C29.4461 10.4245 29.3243 10.8847 29.3208 11.3642V16.0944C29.3219 16.4185 29.4055 16.7204 29.5421 16.9913L25.9781 20.6616C24.8233 19.7916 23.3927 19.2686 21.8355 19.2686C18.0262 19.2686 14.9395 22.3564 14.9395 26.164C14.9395 29.9716 18.0262 33.0594 21.8355 33.0594C25.6431 33.0594 28.7316 29.9716 28.7316 26.164C28.7316 24.5349 28.1629 23.0401 27.2174 21.8597L30.909 18.059C31.0462 18.0882 31.1868 18.1053 31.3331 18.1059H36.0661C36.5456 18.1025 37.0058 17.9813 37.4459 17.8018C37.8855 17.6171 38.2958 17.3776 38.6376 17.041L46.9187 8.76049C47.0553 8.62324 47.1747 8.47127 47.2686 8.29183C47.3606 8.11286 47.4286 7.90033 47.4286 7.66136C47.4304 7.47555 47.3846 7.27727 47.2943 7.10571ZM21.8355 31.3362C18.9832 31.3362 16.6629 29.0165 16.6629 26.1646C16.6629 23.3134 18.9831 20.9931 21.8355 20.9931C22.9234 20.9931 23.9328 21.3327 24.7667 21.9088L21.217 25.5648C20.8854 25.9061 20.8934 26.452 21.2348 26.7835C21.576 27.1151 22.1225 27.107 22.4541 26.7657L26.0016 23.113C26.6308 23.9694 27.0075 25.0223 27.0075 26.1645C27.0075 29.0165 24.6873 31.3362 21.8355 31.3362ZM31.046 15.4446V11.365C31.0426 11.2129 31.1049 10.9151 31.2198 10.6441C31.329 10.3721 31.4959 10.1176 31.6063 10.0124L39.4158 2.2036L39.7593 5.64302C39.7833 5.87449 39.8496 6.08889 39.9377 6.28952L31.046 15.4446ZM37.419 15.823C37.3127 15.9328 37.0593 16.0991 36.7873 16.2094C36.5163 16.3244 36.2186 16.3866 36.0664 16.3832H32.5372L41.1624 7.50143C41.3579 7.58496 41.5642 7.64833 41.7889 7.67233L45.2266 8.01527L37.419 15.823Z" fill="#888888"/>
</g>
<defs>
<clipPath id="clip0_1_8650">
<rect width="48" height="48" fill="white"/>
</clipPath>
</defs>
</svg>

<svg xmlns="http://www.w3.org/2000/svg" width="48" height="48" fill="none" viewBox="0 0 48 48"><g fill="#888" clip-path="url(#a)"><path d="m41.001 17.521-.941.942a5 5 0 0 1-.378.337 19.4 19.4 0 0 1 1.693 7.94c0 10.773-8.766 19.537-19.54 19.537S2.295 37.513 2.295 26.74c0-10.772 8.766-19.536 19.54-19.536 2.245 0 4.399.385 6.408 1.084.192-.305.415-.607.721-.916l.484-.484a21.2 21.2 0 0 0-7.612-1.409c-11.742 0-21.264 9.52-21.264 21.26C.572 38.482 10.094 48 21.836 48c11.743 0 21.263-9.52 21.263-21.261 0-3.302-.753-6.43-2.098-9.218"/><path d="M34.868 20.118h-1.933a12.56 12.56 0 0 1 1.543 6.046c0 6.971-5.672 12.642-12.643 12.642S9.192 33.135 9.192 26.164s5.672-12.64 12.644-12.64c1.959 0 3.817.447 5.474 1.247v-1.888a14.3 14.3 0 0 0-5.474-1.084c-7.936 0-14.368 6.432-14.368 14.365S13.9 40.53 21.836 40.53c7.933 0 14.367-6.433 14.367-14.366 0-2.16-.481-4.208-1.335-6.046"/><path d="M47.294 7.106a1.3 1.3 0 0 0-.566-.553 1.8 1.8 0 0 0-.664-.186l-4.104-.41a.56.56 0 0 1-.318-.169.55.55 0 0 1-.169-.318l-.41-4.105c-.033-.3-.112-.598-.321-.876A1.218 1.218 0 0 0 39.768 0c-.24 0-.452.068-.631.16a2 2 0 0 0-.468.35l-8.283 8.283c-.337.341-.576.752-.76 1.19-.18.441-.302.902-.305 1.381v4.73c0 .325.084.626.221.897l-3.564 3.67a6.86 6.86 0 0 0-4.143-1.392 6.896 6.896 0 1 0 6.897 6.895 6.86 6.86 0 0 0-1.515-4.304l3.692-3.801q.205.045.424.047h4.733c.48-.004.94-.125 1.38-.304.44-.185.85-.424 1.192-.761l8.28-8.28c.137-.138.257-.29.35-.47.093-.178.16-.39.16-.63a1.2 1.2 0 0 0-.134-.555m-25.458 24.23a5.18 5.18 0 0 1-5.173-5.171 5.18 5.18 0 0 1 5.172-5.172 5.14 5.14 0 0 1 2.932.916l-3.55 3.656a.862.862 0 1 0 1.237 1.2l3.548-3.652a5.14 5.14 0 0 1 1.006 3.052 5.18 5.18 0 0 1-5.172 5.171m9.21-15.891v-4.08c-.003-.152.059-.45.174-.72.109-.273.276-.527.386-.633l7.81-7.808.343 3.439c.024.231.09.446.179.647zm6.373.378c-.106.11-.36.276-.632.386-.27.115-.568.178-.72.174h-3.53l8.625-8.882c.196.084.402.147.627.171l3.438.343z"/></g><defs><clipPath id="a"><path fill="#fff" d="M0 0h48v48H0z"/></clipPath></defs></svg>
